X:693
T:Mrs. Duncan
R:Reel
C:Nathaniel Gow
B:The Athole Collection
M:C|
L:1/8
K:C Minor
g|c<cgc ecgc|ecgc dBBd|c<cgc ecge|dbfg ecc:|
G|cdec GcEc|DBFB DB,B,G|cdec GcEc|DEFD ECCG|cdec GeFd|EcFB DB,FD|
Ccec =Bdfa|gfed ecc||

